resources/shader/blue.3DL
#Created by: Adobe Photoshop Export Color Lookup Plugin
#Description: Screenshot 2025-09-24 143310.png
0 33 66 99 132 165 198 231 264 297 330 363 396 429 462 495 528 561 594 627 660 693 726 759 792 825 858 891 924 957 990 1023
37 99 327
37 100 432
37 103 542
37 106 647
37 103 746
37 99 845
37 99 952
37 100 1062
37 91 1165
37 89 1263
37 98 1363
37 104 1463
37 107 1565
37 112 1666
37 117 1762
37 123 1857
37 129 1956
37 136 2057
37 144 2161
37 150 2265
37 154 2364
37 160 2462
37 174 2565
37 185 2667
37 191 2763
37 198 2860
37 205 2967
37 212 3074
37 225 3183
37 239 3292
37 252 3397
37 263 3500
37 196 322
37 196 428
37 198 539
37 200 641
37 197 740
37 198 845
37 199 953
37 199 1056
37 193 1157
37 193 1262
37 199 1364
37 203 1460
37 207 1561
37 213 1664
37 217 1762
37 220 1860
37 226 1960
37 232 2060
37 237 2159
37 243 2261
37 249 2366
37 256 2466
37 263 2563
37 275 2667
37 285 2770
37 291 2866
37 300 2970
37 307 3077
37 318 3183
37 332 3292
37 343 3403
37 355 3506
37 295 315
37 292 422
37 292 534
37 293 639
37 290 735
37 291 839
37 297 951
37 298 1056
37 298 1153
37 301 1257
37 301 1362
37 302 1461
37 308 1557
37 314 1658
37 317 1760
37 319 1860
37 325 1962
37 331 2063
37 334 2159
37 336 2255
37 345 2365
37 355 2473
37 358 2566
37 363 2662
37 374 2768
37 384 2872
37 394 2977
37 406 3083
37 416 3189
37 425 3292
37 436 3404
37 447 3515
37 401 308
37 399 414
37 399 524
37 399 638
37 397 740
37 396 838
37 398 945
37 402 1052
37 403 1152
37 407 1255
37 408 1359
37 407 1463
37 412 1563
37 415 1658
37 417 1755
37 421 1858
37 427 1962
37 433 2066
37 437 2166
37 440 2261
37 447 2363
37 456 2474
37 464 2577
37 467 2672
37 474 2776
37 485 2881
37 496 2982
37 508 3089
37 520 3201
37 528 3304
37 537 3412
37 548 3523
37 507 303
37 507 413
37 507 519
37 508 629
37 508 743
37 506 846
37 503 944
37 505 1047
37 508 1150
37 512 1255
37 515 1358
37 516 1460
37 519 1565
37 521 1665
37 521 1758
37 524 1856
37 530 1963
37 535 2070
37 541 2171
37 546 2271
37 552 2370
37 559 2471
37 568 2578
37 576 2684
37 581 2788
37 588 2892
37 599 2993
37 610 3093
37 622 3205
37 634 3316
37 642 3424
37 651 3533
37 613 307
37 614 421
37 615 529
37 615 631
37 614 738
37 614 847
37 613 949
37 615 1049
37 617 1151
37 622 1259
37 625 1363
37 627 1462
37 628 1564
37 631 1670
37 633 1766
37 634 1861
37 638 1963
37 644 2070
37 652 2175
37 659 2279
37 665 2384
37 671 2481
37 677 2582
37 684 2690
37 692 2800
37 699 2905
37 711 3011
37 721 3111
37 727 3214
37 738 3326
37 753 3434
37 762 3543
37 719 309
37 720 427
37 723 537
37 724 639
37 721 738
37 721 843
37 724 952
37 727 1058
37 730 1158
37 734 1261
37 737 1367
37 739 1469
37 739 1568
37 741 1671
37 744 1770
37 747 1870
37 750 1969
37 754 2070
37 763 2177
37 772 2284
37 778 2391
37 782 2495
37 788 2595
37 795 2699
37 803 2809
37 812 2918
37 823 3023
37 834 3127
37 840 3231
37 846 3337
37 860 3445
37 874 3554
37 833 304
37 834 423
37 837 537
37 838 642
37 836 745
37 836 847
37 836 949
37 841 1062
37 843 1169
37 847 1267
37 852 1371
37 855 1477
37 858 1580
37 860 1682
37 861 1779
37 865 1883
37 870 1988
37 875 2088
37 883 2193
37 892 2299
37 900 2409
37 903 2514
37 907 2614
37 915 2718
37 922 2823
37 931 2931
37 939 3040
37 950 3144
37 960 3253
37 967 3359
37 974 3462
37 986 3570
37 950 306
37 953 419
37 956 538
37 958 650
37 958 758
37 957 860
37 954 955
37 956 1060
37 959 1175
37 962 1280
37 968 1382
37 973 1488
37 979 1593
37 982 1697
37 982 1793
37 985 1894
37 991 2001
37 996 2107
37 1005 2211
37 1015 2317
37 1024 2427
37 1030 2535
37 1032 2636
37 1037 2737
37 1044 2842
37 1049 2946
37 1058 3054
37 1066 3163
37 1077 3271
37 1088 3380
37 1095 3484
37 1101 3587
37 1075 319
37 1078 432
37 1083 553
37 1087 668
37 1087 776
37 1085 880
37 1084 980
37 1087 1080
37 1093 1190
37 1094 1296
37 1097 1399
37 1102 1506
37 1108 1615
37 1112 1719
37 1112 1817
37 1114 1916
37 1119 2019
37 1125 2126
37 1131 2235
37 1142 2342
37 1156 2454
37 1162 2562
37 1163 2666
37 1167 2767
37 1172 2863
37 1178 2967
37 1186 3078
37 1195 3187
37 1205 3293
37 1216 3401
37 1226 3505
37 1232 3608
37 1206 336
37 1206 448
37 1213 569
37 1214 684
37 1214 792
37 1216 899
37 1216 1003
37 1218 1107
37 1227 1213
37 1229 1315
37 1229 1418
37 1234 1524
37 1239 1635
37 1244 1742
37 1244 1841
37 1246 1942
37 1251 2043
37 1257 2147
37 1263 2257
37 1269 2367
37 1284 2480
37 1294 2588
37 1294 2692
37 1297 2797
37 1303 2894
37 1310 2993
37 1319 3104
37 1328 3215
37 1339 3321
37 1350 3428
37 1358 3533
37 1367 3636
37 1350 366
37 1350 477
37 1354 599
37 1353 713
37 1351 821
37 1354 931
37 1354 1038
37 1355 1141
37 1360 1243
37 1362 1346
37 1364 1451
37 1369 1554
37 1375 1654
37 1380 1763
37 1382 1869
37 1384 1970
37 1390 2076
37 1396 2180
37 1399 2282
37 1404 2392
37 1408 2497
37 1418 2605
37 1428 2719
37 1431 2824
37 1438 2929
37 1446 3029
37 1460 3141
37 1470 3252
37 1475 3354
37 1484 3459
37 1491 3569
37 1500 3674
37 1487 391
37 1492 497
37 1495 619
37 1495 740
37 1492 848
37 1493 959
37 1493 1068
37 1495 1174
37 1498 1274
37 1501 1381
37 1504 1486
37 1508 1587
37 1514 1684
37 1519 1786
37 1522 1894
37 1526 2002
37 1532 2109
37 1537 2215
37 1540 2316
37 1543 2420
37 1546 2524
37 1550 2629
37 1561 2743
37 1571 2857
37 1578 2961
37 1585 3065
37 1599 3176
37 1611 3287
37 1615 3389
37 1619 3490
37 1626 3596
37 1634 3705
37 1625 415
37 1630 514
37 1633 616
37 1634 746
37 1633 873
37 1635 983
37 1637 1090
37 1639 1197
37 1642 1302
37 1647 1409
37 1652 1517
37 1654 1619
37 1655 1720
37 1661 1822
37 1663 1927
37 1668 2036
37 1677 2143
37 1682 2249
37 1691 2359
37 1694 2462
37 1688 2561
37 1692 2666
37 1708 2780
37 1719 2893
37 1723 3003
37 1730 3108
37 1741 3208
37 1753 3315
37 1759 3423
37 1763 3526
37 1770 3632
37 1779 3741
37 1770 453
37 1774 548
37 1777 642
37 1779 754
37 1779 889
37 1780 1015
37 1783 1122
37 1785 1227
37 1788 1333
37 1790 1440
37 1796 1548
37 1803 1654
37 1803 1756
37 1804 1857
37 1806 1962
37 1810 2068
37 1818 2175
37 1827 2283
37 1836 2393
37 1843 2503
37 1838 2602
37 1834 2703
37 1850 2817
37 1865 2930
37 1869 3040
37 1874 3149
37 1884 3249
37 1893 3346
37 1896 3449
37 1903 3559
37 1915 3671
37 1923 3780
37 1921 493
37 1926 587
37 1934 679
37 1935 790
37 1930 923
37 1930 1050
37 1931 1159
37 1933 1266
37 1938 1379
37 1940 1483
37 1943 1582
37 1951 1687
37 1951 1787
37 1952 1888
37 1957 1996
37 1960 2102
37 1966 2209
37 1974 2316
37 1977 2423
37 1985 2534
37 1993 2641
37 1991 2742
37 1991 2849
37 2003 2961
37 2017 3075
37 2024 3185
37 2028 3290
37 2035 3389
37 2034 3483
37 2038 3587
37 2057 3705
37 2071 3820
63 2074 534
38 2076 625
38 2085 717
37 2089 822
37 2083 953
37 2080 1082
37 2080 1192
37 2080 1301
37 2086 1416
37 2094 1526
37 2097 1623
37 2098 1724
37 2098 1823
37 2100 1923
37 2106 2031
37 2112 2138
37 2118 2244
37 2122 2351
37 2125 2458
37 2129 2568
37 2138 2675
37 2146 2782
37 2147 2889
37 2148 2996
37 2160 3109
37 2172 3222
37 2177 3326
37 2180 3430
37 2184 3530
37 2184 3625
37 2197 3739
37 2217 3859
84 2224 573
56 2225 665
38 2232 759
37 2237 860
37 2236 977
37 2233 1108
37 2233 1228
37 2232 1335
37 2233 1443
37 2240 1554
37 2240 1656
37 2243 1759
37 2248 1872
37 2250 1970
37 2253 2067
37 2259 2174
37 2270 2289
37 2275 2396
37 2278 2498
37 2282 2607
37 2288 2720
37 2296 2827
37 2302 2934
37 2304 3041
37 2304 3146
37 2313 3255
37 2317 3355
37 2321 3457
37 2333 3569
37 2340 3674
37 2346 3781
37 2360 3895
143 2378 613
113 2380 705
91 2386 799
37 2388 900
37 2388 1014
37 2388 1135
37 2388 1257
37 2391 1375
37 2391 1481
37 2390 1585
37 2390 1688
37 2392 1793
37 2398 1907
37 2402 2015
37 2405 2111
37 2410 2215
37 2421 2330
37 2429 2442
37 2432 2545
37 2434 2643
37 2439 2754
37 2444 2865
37 2450 2972
37 2454 3077
37 2454 3181
37 2455 3284
37 2458 3384
37 2461 3484
37 2471 3595
37 2484 3709
37 2490 3812
37 2499 3921
238 2538 662
207 2540 753
180 2543 842
111 2546 941
37 2548 1044
37 2548 1166
37 2548 1290
37 2550 1409
37 2548 1520
37 2548 1626
37 2553 1733
37 2554 1839
37 2555 1947
37 2558 2055
37 2558 2154
37 2564 2258
37 2566 2359
37 2573 2470
37 2582 2585
37 2584 2686
37 2587 2787
37 2592 2896
37 2598 2998
37 2602 3102
37 2602 3208
37 2602 3312
37 2605 3421
37 2608 3527
37 2612 3630
37 2620 3736
37 2621 3834
37 2624 3937
324 2678 690
284 2685 783
257 2688 872
216 2692 966
129 2695 1067
86 2696 1184
86 2696 1309
37 2697 1433
37 2694 1545
37 2695 1656
37 2701 1764
40 2706 1870
40 2706 1978
37 2706 2083
37 2706 2182
37 2706 2287
37 2709 2389
37 2711 2489
37 2719 2601
37 2723 2709
37 2726 2812
37 2728 2915
37 2732 3016
37 2736 3115
37 2737 3218
37 2737 3327
37 2740 3440
37 2742 3551
37 2746 3655
37 2749 3756
37 2750 3856
37 2750 3954
382 2814 702
342 2820 796
321 2823 893
280 2828 986
190 2831 1077
149 2832 1194
159 2835 1321
104 2836 1446
37 2838 1569
37 2839 1680
37 2837 1785
40 2841 1892
40 2847 1997
37 2847 2101
37 2847 2203
37 2847 2309
37 2850 2418
37 2853 2519
37 2853 2612
37 2856 2715
37 2859 2824
37 2860 2930
37 2860 3032
37 2862 3131
37 2865 3226
37 2867 3330
37 2867 3443
37 2869 3554
37 2873 3665
37 2878 3774
37 2879 3875
37 2879 3972
438 2951 728
412 2954 815
391 2957 913
370 2960 1010
281 2963 1100
227 2965 1210
239 2968 1338
226 2969 1456
156 2971 1579
129 2973 1699
129 2970 1804
112 2971 1908
112 2976 2013
120 2977 2115
121 2978 2218
108 2979 2324
104 2981 2433
109 2983 2539
104 2983 2634
104 2986 2729
111 2988 2835
109 2989 2943
107 2989 3047
99 2991 3149
87 2994 3247
98 2997 3344
121 2998 3451
119 2998 3562
114 3001 3673
113 3007 3788
107 3009 3894
107 3009 3992
520 3084 757
494 3086 846
467 3089 931
449 3092 1028
427 3092 1121
372 3095 1232
327 3101 1356
317 3101 1474
305 3098 1580
279 3099 1699
253 3102 1822
234 3103 1927
223 3103 2026
230 3103 2128
247 3106 2233
236 3108 2339
211 3108 2446
210 3109 2551
187 3112 2653
180 3115 2750
208 3115 2846
216 3115 2949
213 3117 3059
203 3120 3164
174 3121 3267
172 3123 3368
216 3126 3470
238 3127 3575
230 3129 3684
226 3133 3797
218 3137 3909
211 3141 4016
589 3212 779
569 3214 868
543 3218 954
516 3221 1041
495 3221 1134
475 3223 1232
432 3229 1356
410 3229 1481
399 3226 1587
385 3224 1707
359 3227 1830
343 3228 1941
331 3228 2041
323 3229 2139
339 3232 2242
341 3233 2346
318 3233 2452
307 3234 2559
291 3237 2663
286 3240 2764
309 3240 2860
324 3240 2958
320 3243 3065
320 3245 3171
308 3246 3275
283 3247 3379
291 3250 3483
328 3252 3584
329 3254 3691
326 3257 3803
342 3260 3909
334 3266 4021
653 3337 801
630 3341 890
615 3347 975
590 3350 1063
560 3350 1153
540 3352 1250
522 3358 1351
502 3359 1475
490 3356 1593
477 3354 1713
454 3354 1839
438 3354 1950
426 3354 2055
418 3356 2154
427 3356 2247
426 3356 2349
412 3356 2455
404 3358 2562
407 3360 2670
411 3363 2773
426 3363 2871
434 3363 2970
428 3366 3073
427 3368 3177
435 3370 3281
429 3373 3386
410 3375 3490
407 3375 3593
413 3377 3698
418 3380 3806
444 3383 3910
462 3386 4015
708 3459 812
681 3461 903
667 3467 989
646 3470 1075
616 3470 1165
588 3472 1254
569 3477 1355
555 3482 1472
544 3479 1589
543 3478 1711
524 3478 1837
503 3478 1950
490 3478 2055
484 3481 2164
490 3481 2260
494 3479 2360
482 3479 2465
474 3481 2570
472 3484 2678
470 3484 2781
479 3483 2879
492 3483 2979
494 3485 3083
496 3488 3183
509 3490 3283
515 3492 3388
505 3493 3492
489 3494 3595
501 3496 3700
507 3498 3806
516 3500 3908
541 3503 4011
747 3582 820
721 3584 909
712 3587 1001
692 3589 1087
665 3589 1171
637 3592 1261
601 3595 1355
586 3598 1472
580 3598 1586
579 3597 1708
591 3600 1837
576 3601 1950
556 3601 2058
548 3604 2167
545 3604 2272
546 3602 2375
540 3602 2476
535 3604 2580
526 3607 2687
519 3607 2790
522 3604 2888
528 3603 2989
539 3605 3092
551 3608 3192
566 3609 3290
576 3609 3391
570 3611 3494
562 3614 3595
579 3614 3699
596 3612 3803
600 3614 3905
609 3617 4008
794 3703 837
774 3705 924
765 3707 1013
745 3710 1099
