resources/shader/blue.CUBE
#Created by: Adobe Photoshop Export Color Lookup Plugin
TITLE "Screenshot 2025-09-24 143310.png"
#LUT size
LUT_3D_SIZE 32
#data domain
DOMAIN_MIN 0.0 0.0 0.0
DOMAIN_MAX 1.0 1.0 1.0
#LUT data points
0.009033 0.024231 0.079773
0.029114 0.023499 0.080505
0.049561 0.023132 0.080048
0.070374 0.023132 0.079315
0.102631 0.022003 0.080231
0.138184 0.021271 0.081696
0.171753 0.019623 0.079834
0.205017 0.018158 0.077637
0.235962 0.014069 0.073975
0.267822 0.010345 0.071045
0.298553 0.005798 0.068848
0.328186 0.000000 0.065796
0.359772 0.000000 0.060638
0.393005 0.000000 0.056885
0.423615 0.000000 0.053589
0.453918 0.000000 0.051575
0.486176 0.000000 0.053192
0.519226 0.000000 0.055206
0.550140 0.000000 0.055389
0.580627 0.000000 0.055298
0.614014 0.000000 0.056274
0.647949 0.000000 0.058228
0.682465 0.000000 0.060242
0.717560 0.000000 0.062286
0.756378 0.000000 0.067993
0.795074 0.000000 0.072876
0.832092 0.000000 0.074341
0.869080 0.000000 0.076599
0.905365 0.000000 0.081665
0.942078 0.000000 0.087494
0.971313 0.000000 0.092743
1.000000 0.000000 0.097168
0.009033 0.047913 0.078613
0.029114 0.047607 0.079773
0.050995 0.046844 0.079651
0.073334 0.046478 0.079315
0.106415 0.044586 0.078308
0.142670 0.043121 0.077972
0.174591 0.041046 0.075287
0.206512 0.039246 0.072388
0.237030 0.035645 0.070465
0.268585 0.032257 0.068756
0.299774 0.027679 0.065186
0.329681 0.021851 0.061340
0.359283 0.020874 0.056671
0.391510 0.020355 0.053162
0.423126 0.020355 0.053497
0.453918 0.020355 0.053070
0.485657 0.020355 0.052521
0.518494 0.020355 0.053711
0.549927 0.020355 0.056091
0.580627 0.020355 0.056793
0.614594 0.020355 0.057770
0.648682 0.020355 0.059723
0.683228 0.020355 0.061707
0.718323 0.020355 0.063782
0.753937 0.020355 0.066345
0.792023 0.020355 0.070618
0.830414 0.020355 0.075378
0.867615 0.020355 0.078094
0.906586 0.020355 0.081116
0.943573 0.020355 0.086761
0.971405 0.020355 0.092010
1.000000 0.020355 0.096436
0.009033 0.071930 0.076996
0.029114 0.071930 0.078461
0.050873 0.070557 0.077972
0.074615 0.069824 0.077972
0.108643 0.068420 0.074860
0.145691 0.066223 0.072662
0.177338 0.064301 0.070557
0.207642 0.062103 0.066833
0.237549 0.059052 0.065308
0.268677 0.056122 0.065308
0.299316 0.051361 0.060150
0.329681 0.045502 0.055023
0.359894 0.043549 0.052032
0.390167 0.042084 0.049255
0.420837 0.041168 0.050934
0.452698 0.041168 0.053619
0.485016 0.041229 0.053467
0.517334 0.041229 0.052826
0.548645 0.041504 0.054901
0.580048 0.041504 0.057739
0.614502 0.041412 0.059265
0.649170 0.041412 0.060974
0.683960 0.041107 0.062714
0.718750 0.041107 0.064484
0.754242 0.041016 0.066986
0.790253 0.041016 0.069214
0.828674 0.041016 0.073944
0.866577 0.041016 0.079071
0.905304 0.040741 0.082275
0.944519 0.040741 0.085663
0.972534 0.041229 0.090607
1.000000 0.041229 0.094757
0.009033 0.097992 0.075134
0.029114 0.097534 0.074738
0.050262 0.096161 0.074585
0.073151 0.095428 0.075012
0.107483 0.094696 0.070526
0.144928 0.093323 0.066681
0.177338 0.091766 0.062042
0.208435 0.089905 0.055664
0.237152 0.087646 0.055695
0.267212 0.085419 0.057098
0.297394 0.083618 0.055298
0.327454 0.080048 0.052795
0.358551 0.078094 0.051575
0.389435 0.076630 0.049988
0.419159 0.071045 0.047943
0.450470 0.068268 0.048401
0.482758 0.068817 0.052155
0.515106 0.069061 0.053558
0.546906 0.072357 0.054657
0.578552 0.073822 0.057007
0.613007 0.072662 0.057465
0.647675 0.072235 0.058746
0.684143 0.068604 0.060486
0.719513 0.067444 0.062256
0.755585 0.066193 0.066498
0.791779 0.065857 0.069214
0.829559 0.065857 0.072723
0.867310 0.065857 0.077606
0.903534 0.061768 0.082031
0.942261 0.061096 0.085663
0.972290 0.068207 0.087952
1.000000 0.069061 0.091766
0.009033 0.123840 0.073975
0.029114 0.123108 0.072479
0.050171 0.122040 0.071655
0.072449 0.121307 0.072388
0.103760 0.120392 0.070435
0.141510 0.119659 0.065277
0.174896 0.119141 0.058929
0.206726 0.117615 0.050140
0.237305 0.115814 0.045532
0.266174 0.114349 0.048462
0.296326 0.112762 0.048218
0.326019 0.112000 0.048950
0.358154 0.109497 0.048950
0.389923 0.108002 0.048950
0.420410 0.103455 0.047363
0.450684 0.096588 0.044678
0.482025 0.096924 0.048920
0.514160 0.098206 0.053467
0.545319 0.102875 0.054199
0.577454 0.106720 0.055847
0.611877 0.105865 0.057037
0.646545 0.104401 0.057190
0.683105 0.101532 0.058990
0.719788 0.097992 0.061340
0.756073 0.097015 0.065918
0.792694 0.094330 0.069641
0.830292 0.093506 0.072876
0.867401 0.095123 0.076965
0.903961 0.092133 0.081482
0.940674 0.086151 0.084991
0.970337 0.092224 0.087372
1.000000 0.099365 0.090332
0.009033 0.149658 0.074982
0.029114 0.149445 0.072479
0.049896 0.148102 0.071136
0.071686 0.146881 0.070892
0.101257 0.146271 0.070984
0.136261 0.145996 0.069031
0.169312 0.146729 0.065521
0.200714 0.146973 0.060547
0.233032 0.144806 0.048767
0.263947 0.142944 0.043213
0.295197 0.142090 0.040039
0.326019 0.142090 0.037750
0.359314 0.138428 0.037750
0.392151 0.135864 0.037750
0.423065 0.136749 0.038269
0.453674 0.134125 0.037201
0.484131 0.135345 0.043640
0.515625 0.137238 0.049774
0.546356 0.140533 0.048645
0.578186 0.143494 0.049133
0.611664 0.144073 0.053223
0.645782 0.143402 0.054932
0.682861 0.146179 0.059265
0.719788 0.145264 0.062836
0.756622 0.145905 0.066864
0.793457 0.143860 0.070404
0.829895 0.142487 0.072510
0.866669 0.143890 0.076202
0.905548 0.145020 0.081329
0.942902 0.140137 0.084991
0.970734 0.141907 0.088623
1.000000 0.148102 0.091888
0.009033 0.175690 0.075470
0.029114 0.175690 0.072510
0.049622 0.174988 0.071686
0.071167 0.173523 0.070953
0.101837 0.173065 0.070587
0.135162 0.173065 0.070587
0.165436 0.173767 0.069641
0.196533 0.175232 0.067413
0.228119 0.174835 0.060425
0.260712 0.172638 0.047913
0.293060 0.172424 0.040161
0.324921 0.173126 0.035095
0.358124 0.170898 0.033508
0.392120 0.167297 0.033508
0.424561 0.168030 0.032867
0.455750 0.169861 0.033539
0.487549 0.169861 0.038269
0.518890 0.171417 0.046143
0.552246 0.171112 0.045319
0.583282 0.173584 0.044067
0.615509 0.176239 0.046631
0.648834 0.177490 0.050323
0.685455 0.181030 0.054382
0.722778 0.184753 0.058472
0.758728 0.186493 0.062958
0.794861 0.188782 0.068237
0.830261 0.189941 0.072601
0.866333 0.189606 0.074005
0.905334 0.190765 0.078857
0.944763 0.191071 0.085815
0.972534 0.192566 0.089813
1.000000 0.194519 0.092255
0.009033 0.203522 0.074158
0.029114 0.203522 0.074005
0.049194 0.203278 0.073608
0.069672 0.202881 0.073944
0.101562 0.202423 0.073090
0.137390 0.202423 0.072083
0.166626 0.202850 0.072235
0.195801 0.203827 0.071930
0.226501 0.204620 0.068787
0.257721 0.204193 0.062164
0.291656 0.204315 0.054047
0.325684 0.205475 0.048523
0.357483 0.204224 0.043121
0.389893 0.201843 0.038727
0.424561 0.202209 0.035095
0.457977 0.203674 0.032806
0.491333 0.200958 0.032806
0.524109 0.200012 0.036407
0.560699 0.197266 0.036407
0.594482 0.197723 0.035828
0.625427 0.203827 0.035828
0.657806 0.207550 0.037628
0.693542 0.210632 0.041229
0.730255 0.214020 0.045044
0.763275 0.217743 0.053864
0.797821 0.221100 0.061462
0.831177 0.225830 0.070496
0.866333 0.227142 0.074005
0.905884 0.229919 0.079407
0.945526 0.230804 0.086548
0.972717 0.230072 0.090546
1.000000 0.231293 0.092987
0.009033 0.232086 0.074646
0.029114 0.232086 0.075378
0.049194 0.232025 0.075806
0.069275 0.232025 0.076538
0.101288 0.231598 0.073792
0.138245 0.231598 0.072327
0.169617 0.232483 0.073334
0.197784 0.233215 0.074066
0.227264 0.234039 0.073639
0.257660 0.234772 0.070709
0.290009 0.236237 0.069458
0.325531 0.237671 0.063538
0.357147 0.237366 0.054932
0.388367 0.235931 0.046844
0.423004 0.236328 0.040863
0.458405 0.237976 0.036163
0.492554 0.237732 0.033447
0.526245 0.234802 0.033447
0.561920 0.233185 0.032501
0.598938 0.231171 0.032501
0.633057 0.234833 0.032501
0.664917 0.240234 0.032501
0.700470 0.241943 0.034943
0.736847 0.244446 0.038483
0.772034 0.245972 0.044617
0.804413 0.249847 0.052490
0.837982 0.253479 0.058075
0.872101 0.257080 0.064484
0.910400 0.261658 0.073212
0.948975 0.266418 0.081116
0.974304 0.266418 0.085175
1.000000 0.266693 0.090637
0.009033 0.262421 0.077911
0.029114 0.263672 0.079865
0.049194 0.263763 0.080444
0.069275 0.264343 0.081757
0.101074 0.263702 0.078400
0.137512 0.263153 0.075287
0.169739 0.264069 0.076324
0.200012 0.264801 0.077057
0.229492 0.265350 0.077606
0.259888 0.265594 0.076660
0.291168 0.268127 0.079773
0.324768 0.271484 0.081451
0.356110 0.271484 0.071686
0.386871 0.270477 0.061829
0.421539 0.270538 0.055481
0.456940 0.271790 0.050323
0.491394 0.273285 0.042816
0.525513 0.272308 0.037170
0.560822 0.272491 0.034454
0.597473 0.272430 0.032501
0.635010 0.273407 0.032501
0.670105 0.276276 0.032501
0.704437 0.276733 0.032501
0.739838 0.278229 0.034027
0.779388 0.275848 0.034027
0.814880 0.276917 0.037567
0.849396 0.278717 0.037567
0.884064 0.281189 0.040588
0.918945 0.290161 0.057648
0.955719 0.297241 0.069916
0.976379 0.298279 0.073944
1.000000 0.299011 0.079437
0.009033 0.294434 0.082123
0.029114 0.295929 0.084320
0.049194 0.295563 0.083923
0.069275 0.296295 0.085388
0.100586 0.296234 0.084869
0.136841 0.295502 0.081207
0.170258 0.295624 0.080292
0.201355 0.296356 0.081024
0.231445 0.297882 0.082306
0.261841 0.297882 0.082306
0.293152 0.299957 0.084564
0.325714 0.304321 0.090393
0.355835 0.305511 0.089081
0.386383 0.304901 0.078217
0.421265 0.305603 0.071167
0.456512 0.306274 0.065002
0.490631 0.307037 0.056152
0.525299 0.307709 0.046356
0.561554 0.309265 0.041473
0.597656 0.310638 0.038269
0.634247 0.311981 0.036102
0.671753 0.313660 0.036102
0.707642 0.314331 0.032501
0.742432 0.315063 0.032501
0.780640 0.313629 0.032501
0.819885 0.310852 0.032501
0.856415 0.311707 0.032501
0.891785 0.312347 0.032501
0.925262 0.317780 0.043549
0.959381 0.325073 0.056274
0.979919 0.323944 0.058624
1.000000 0.324677 0.061066
0.009033 0.329681 0.089417
0.029114 0.330475 0.090332
0.049194 0.329773 0.089600
0.069275 0.328613 0.089172
0.100433 0.328705 0.089355
0.136108 0.328583 0.088684
0.169830 0.328491 0.087097
0.202087 0.328674 0.085480
0.232971 0.330811 0.087372
0.265564 0.332428 0.089050
0.296204 0.333832 0.090179
0.327209 0.336639 0.093445
0.357574 0.339081 0.097076
0.388641 0.340942 0.096100
0.423218 0.341095 0.088531
0.458008 0.340820 0.081421
0.492096 0.341888 0.073792
0.526794 0.342987 0.065796
0.563049 0.345184 0.060272
0.599152 0.347412 0.056183
0.635071 0.348785 0.051025
0.671753 0.350494 0.047333
0.709808 0.350433 0.038269
0.746887 0.350403 0.032501
0.782776 0.350494 0.032501
0.819885 0.349182 0.032501
0.858887 0.349609 0.032501
0.896240 0.349945 0.032501
0.927094 0.349152 0.032501
0.959381 0.352173 0.037628
0.979919 0.347260 0.037628
1.000000 0.345764 0.038635
0.009033 0.363098 0.095520
0.029114 0.363831 0.096252
0.049194 0.364594 0.097351
0.069275 0.363098 0.096619
0.099152 0.362427 0.096008
0.134674 0.362427 0.096008
0.172699 0.362976 0.095123
0.205292 0.362976 0.092896
0.235413 0.364563 0.094086
0.268738 0.366760 0.096313
0.299255 0.368134 0.098236
0.329681 0.370331 0.100433
0.362122 0.372742 0.101929
0.393311 0.375519 0.105377
0.426300 0.376160 0.104614
0.460938 0.375732 0.097595
0.493835 0.377594 0.092041
0.528473 0.378937 0.084747
0.564545 0.381042 0.079437
0.600739 0.383972 0.073975
0.637085 0.385773 0.067505
0.673248 0.387299 0.060883
0.710297 0.388702 0.053528
0.748932 0.387939 0.043823
0.786469 0.386963 0.037415
0.822174 0.387665 0.037415
0.860229 0.388641 0.032501
0.899200 0.388184 0.032501
0.929565 0.386932 0.032501
0.959534 0.387115 0.032501
0.979919 0.382202 0.032501
1.000000 0.375519 0.032501
0.009033 0.396851 0.101440
0.029114 0.396881 0.101471
0.049194 0.397797 0.102692
0.069275 0.397675 0.103302
0.099731 0.396973 0.102722
0.139160 0.396973 0.102722
0.177460 0.397797 0.102203
0.211273 0.399017 0.101868
0.240967 0.400604 0.103027
0.272522 0.402802 0.105255
0.303375 0.403809 0.106995
0.334930 0.404877 0.108612
0.367981 0.407074 0.109100
0.400818 0.409332 0.109833
0.432892 0.410858 0.112762
0.465424 0.412506 0.114044
0.497345 0.414368 0.108978
0.529968 0.415802 0.102631
0.566040 0.417603 0.097900
0.602234 0.420074 0.093414
0.638885 0.421844 0.087219
0.675476 0.423309 0.081024
0.711609 0.426605 0.076813
0.748932 0.428436 0.071442
0.788177 0.426453 0.058197
0.825897 0.425934 0.050110
0.862823 0.426910 0.038940
0.900696 0.426453 0.032501
0.930298 0.424835 0.032501
0.959534 0.424652 0.032501
0.979919 0.419739 0.032501
1.000000 0.413055 0.032501
0.009033 0.432281 0.110596
0.029114 0.432281 0.110596
0.052551 0.432526 0.110535
0.072632 0.432526 0.111267
0.104736 0.432922 0.111206
0.144714 0.432922 0.111206
0.179169 0.433929 0.110779
0.213196 0.435394 0.110779
0.247864 0.436035 0.110748
0.278992 0.438232 0.112946
0.309143 0.440094 0.115265
0.341034 0.440826 0.116730
0.373474 0.441528 0.116974
0.406738 0.443726 0.117004
0.438599 0.446289 0.119354
0.470459 0.448425 0.123535
0.502197 0.450562 0.123962
0.534119 0.452209 0.118652
0.569946 0.454590 0.116394
0.606049 0.456604 0.112061
0.641541 0.457581 0.105225
0.678406 0.458923 0.099304
0.714691 0.461395 0.095917
0.750977 0.465057 0.092529
0.788422 0.464355 0.080963
0.826935 0.462189 0.064880
0.862854 0.461578 0.051788
0.900665 0.462311 0.042084
0.931366 0.460663 0.035187
0.959595 0.458740 0.035187
0.979919 0.455017 0.032501
1.000000 0.450592 0.032501
0.009033 0.469055 0.120300
0.029114 0.469055 0.122498
0.052765 0.469299 0.122467
0.080139 0.469299 0.121735
0.112183 0.469818 0.121704
0.151428 0.471222 0.122406
0.185638 0.472137 0.121857
0.217651 0.472931 0.120514
0.252716 0.473267 0.120056
0.286438 0.473541 0.119690
0.316711 0.475525 0.122162
0.349213 0.476868 0.124237
0.381042 0.477112 0.124481
0.411926 0.477539 0.124512
0.443817 0.480316 0.126282
0.475647 0.483032 0.128754
0.507416 0.485565 0.131805
0.539368 0.488251 0.133575
0.575195 0.490631 0.131744
0.611267 0.492645 0.128479
0.646027 0.493378 0.121399
0.681396 0.494232 0.115021
0.717682 0.496155 0.112152
0.753998 0.498871 0.109741
0.790253 0.498749 0.099335
0.826935 0.497467 0.085052
0.861908 0.495911 0.072296
0.898438 0.495361 0.063019
0.930176 0.493408 0.049164
0.959595 0.491089 0.041138
0.979919 0.488861 0.035492
1.000000 0.485931 0.032501
0.015350 0.506561 0.130402
0.035950 0.506622 0.132538
0.064026 0.506012 0.132751
0.091736 0.505981 0.132080
0.118225 0.505615 0.131104
0.157410 0.507080 0.131836
0.195862 0.509277 0.131805
0.227692 0.510010 0.130341
0.259064 0.511078 0.130859
0.293121 0.511078 0.130127
0.325653 0.511261 0.129242
0.358185 0.512756 0.131439
0.388184 0.514862 0.134552
0.418762 0.514893 0.134521
0.451263 0.515686 0.134705
0.482819 0.518524 0.136841
0.514374 0.520294 0.138397
0.546478 0.523132 0.141937
0.581543 0.525696 0.143677
0.617615 0.527893 0.141388
0.651215 0.528931 0.138611
0.686035 0.529663 0.132355
0.720154 0.530853 0.127869
0.756165 0.533051 0.125214
0.791840 0.531982 0.116760
0.827698 0.531433 0.105499
0.862152 0.529755 0.093964
0.897552 0.528473 0.081970
0.929077 0.527893 0.070435
0.959534 0.525238 0.054779
0.979919 0.522980 0.046997
1.000000 0.520538 0.043121
0.020447 0.543091 0.139954
0.048645 0.543823 0.141418
0.077271 0.543274 0.141602
0.112793 0.542542 0.142334
0.139374 0.542114 0.141388
0.159607 0.541412 0.139221
0.198456 0.543701 0.139313
0.238708 0.546539 0.140656
0.269867 0.547729 0.141266
0.301239 0.549133 0.141876
0.333679 0.549133 0.140472
0.365570 0.549316 0.138824
0.395660 0.551758 0.142487
0.426849 0.553650 0.145538
0.459351 0.553864 0.145325
0.490906 0.554321 0.145691
0.522797 0.555786 0.146606
0.556030 0.557434 0.147858
0.590576 0.560181 0.150757
0.624969 0.562958 0.152405
0.658020 0.563995 0.151184
0.691193 0.564728 0.149261
0.724213 0.565460 0.143646
0.757629 0.566650 0.138458
0.793060 0.565094 0.131500
0.828430 0.563568 0.123138
0.862610 0.561584 0.111603
0.897552 0.559875 0.099609
0.929077 0.560516 0.090485
0.959534 0.559570 0.078308
0.979919 0.557312 0.069183
1.000000 0.554871 0.063721
0.034882 0.580688 0.149811
0.062195 0.581329 0.151031
0.094055 0.581482 0.151642
0.129395 0.580780 0.152374
0.156586 0.580688 0.152100
0.176941 0.579987 0.149933
0.205780 0.579254 0.148804
0.246460 0.582184 0.150269
0.282806 0.583344 0.149872
0.313934 0.584839 0.150635
0.344696 0.586884 0.150421
0.376526 0.586884 0.148254
0.405975 0.587128 0.149872
0.437134 0.589325 0.153320
0.468170 0.590393 0.153503
0.499908 0.590393 0.153778
0.530304 0.589813 0.154663
0.563446 0.591339 0.155457
0.597260 0.593262 0.157227
0.631042 0.596100 0.160431
0.662201 0.596741 0.160980
0.694550 0.597473 0.159882
0.726074 0.598206 0.159058
0.759094 0.598633 0.152740
0.794128 0.597473 0.144836
0.829254 0.595795 0.138000
0.864990 0.594238 0.128967
0.899841 0.591827 0.116394
0.929321 0.591095 0.106323
0.959564 0.591583 0.097260
0.979919 0.589874 0.087189
1.000000 0.587433 0.075836
0.058044 0.619751 0.161713
0.078125 0.619751 0.160980
0.109009 0.619781 0.161316
0.141571 0.619781 0.162048
0.168549 0.619751 0.161743
0.196014 0.619751 0.161011
0.225189 0.619049 0.159973
0.256317 0.618317 0.159241
0.292694 0.619385 0.158783
0.328857 0.620148 0.158813
0.359497 0.622345 0.158661
0.389984 0.624420 0.157166
0.419098 0.624420 0.158630
0.447540 0.624603 0.160767
0.478363 0.625793 0.161072
0.508850 0.626434 0.161957
0.538605 0.625366 0.162720
0.568634 0.624390 0.162903
0.602478 0.626038 0.164398
0.636230 0.627686 0.166443
0.666931 0.628143 0.166992
0.697540 0.628296 0.165894
0.728668 0.629028 0.167175
0.760590 0.629486 0.166931
0.795380 0.628754 0.158813
0.830017 0.628113 0.151428
0.866730 0.626801 0.143646
0.903564 0.624908 0.133545
0.931702 0.623322 0.122986
0.959564 0.622406 0.112976
0.979919 0.621002 0.101990
1.000000 0.618988 0.089264
0.079132 0.654022 0.168396
0.100220 0.653900 0.168060
0.124329 0.655487 0.169495
0.155914 0.655792 0.170441
0.183136 0.655792 0.170044
0.210815 0.655792 0.169373
0.239197 0.655792 0.169464
0.270111 0.655090 0.168823
0.299164 0.654175 0.167023
0.335205 0.654846 0.166962
0.366913 0.655396 0.166260
0.397339 0.657562 0.164795
0.426758 0.657562 0.165070
0.454865 0.657654 0.167206
0.484375 0.657684 0.165649
0.514771 0.658295 0.166382
0.544495 0.658386 0.168396
0.574219 0.657166 0.168549
0.607239 0.657990 0.168182
0.640930 0.659363 0.169800
0.672821 0.659515 0.172424
0.703461 0.659393 0.171692
0.734680 0.658966 0.171997
0.765656 0.659546 0.173767
0.797546 0.659363 0.172791
0.832642 0.658630 0.164856
0.867310 0.658173 0.157318
0.903687 0.657104 0.149597
0.932129 0.655731 0.139130
0.959564 0.654510 0.128387
0.979919 0.653046 0.119598
1.000000 0.650818 0.108276
0.093231 0.687134 0.171478
0.119232 0.686401 0.172974
0.144226 0.687836 0.174744
0.169434 0.690002 0.176941
0.195770 0.690308 0.176758
0.225433 0.690308 0.176758
0.253998 0.690308 0.176941
0.282166 0.690308 0.177673
0.311096 0.689484 0.175995
0.339966 0.688019 0.173035
0.371460 0.688446 0.172272
0.403320 0.688446 0.170837
0.432678 0.688446 0.171112
0.460175 0.688477 0.172485
0.489685 0.688385 0.170624
0.520050 0.687683 0.167969
0.549774 0.688019 0.170319
0.579407 0.688721 0.173035
0.612366 0.689453 0.172302
0.645447 0.690186 0.171326
0.677673 0.690369 0.174652
0.710175 0.690216 0.177612
0.741394 0.689514 0.177490
0.772369 0.688934 0.177521
0.803375 0.688934 0.178772
0.835571 0.688782 0.178345
0.869263 0.688690 0.170990
0.902985 0.688660 0.163788
0.931610 0.687286 0.153076
0.959564 0.686035 0.141815
0.979919 0.684601 0.134277
1.000000 0.682404 0.125458
0.107056 0.720734 0.177734
0.131470 0.720184 0.178680
0.153961 0.720184 0.179718
0.178741 0.722076 0.181946
0.207275 0.721985 0.182465
0.237152 0.721863 0.182465
0.266510 0.722107 0.181793
0.294952 0.722107 0.182373
0.322021 0.722198 0.181793
0.350403 0.720795 0.178986
0.380005 0.720245 0.178192
0.411774 0.720245 0.176819
0.442871 0.720001 0.177307
0.470459 0.719910 0.178528
0.499420 0.719971 0.177094
0.529694 0.719360 0.174347
0.559021 0.719604 0.174286
0.588501 0.720245 0.176971
0.619354 0.720276 0.177582
0.652435 0.721039 0.176575
0.681671 0.721191 0.177887
0.714355 0.721069 0.180847
0.747406 0.719818 0.180695
0.778656 0.719391 0.181152
0.809875 0.719482 0.180206
0.840607 0.719482 0.181671
0.871552 0.718445 0.181854
0.905273 0.718048 0.174103
0.931854 0.717102 0.166290
0.959595 0.715393 0.155457
0.979919 0.715912 0.149475
1.000000 0.714691 0.141602
0.126923 0.753082 0.184906
0.146271 0.753082 0.184174
0.167938 0.753296 0.185059
0.190979 0.754028 0.187256
0.218842 0.753662 0.187866
0.249969 0.752960 0.187866
0.279266 0.752991 0.186951
0.309631 0.752991 0.186218
0.336700 0.753021 0.185577
0.360443 0.752289 0.184082
0.389679 0.751740 0.183411
0.420074 0.751770 0.182678
0.451111 0.751526 0.183014
0.482117 0.750763 0.182800
0.511047 0.750824 0.181366
0.540222 0.751587 0.180939
0.569580 0.751740 0.180725
0.598846 0.751862 0.180878
0.629578 0.751862 0.181580
0.660675 0.751801 0.182343
0.689484 0.751953 0.183380
0.718201 0.751892 0.183868
0.751556 0.750549 0.183746
0.784576 0.749359 0.184052
0.815796 0.749451 0.182495
0.846619 0.749512 0.181091
0.876953 0.748169 0.183228
0.908295 0.746613 0.183044
0.934174 0.745819 0.176270
0.959595 0.744812 0.169098
0.979919 0.746124 0.163727
1.000000 0.746887 0.157288
0.143890 0.784271 0.190308
0.164337 0.784271 0.189789
0.185913 0.784882 0.190521
0.208344 0.785614 0.192352
0.232788 0.785095 0.193146
0.262878 0.784332 0.193146
0.288300 0.783173 0.191040
0.317505 0.782898 0.190186
0.347290 0.783142 0.189056
0.371857 0.782532 0.187469
0.398438 0.781982 0.186493
0.428467 0.782013 0.185669
0.460297 0.782745 0.185913
0.491455 0.782104 0.185760
0.518799 0.781647 0.184448
0.547852 0.782349 0.184082
0.580139 0.782013 0.184296
0.609467 0.782135 0.184418
0.635254 0.782501 0.185333
0.666321 0.782318 0.185974
0.697876 0.779785 0.184326
0.726288 0.779785 0.184845
0.755646 0.779694 0.185242
0.788666 0.778229 0.185394
0.820465 0.778564 0.186401
0.851379 0.778748 0.184875
0.880707 0.778046 0.186951
0.911499 0.776337 0.188171
0.934967 0.774963 0.184662
0.959717 0.774445 0.178955
0.979919 0.773102 0.173340
1.000000 0.774048 0.166870
0.159576 0.815002 0.195679
0.182587 0.815002 0.195679
0.203796 0.815491 0.196320
0.224609 0.816223 0.197052
0.249084 0.815918 0.197327
0.275818 0.815186 0.197327
0.300354 0.814117 0.195770
0.324799 0.812622 0.194305
0.353455 0.812439 0.193024
0.382385 0.812439 0.190796
0.409546 0.812164 0.189240
0.437042 0.812164 0.187805
0.468964 0.812897 0.188049
0.501282 0.813507 0.188782
0.528412 0.813080 0.187988
0.555267 0.813080 0.187866
0.587372 0.812683 0.187805
0.619629 0.812103 0.187439
0.645599 0.812439 0.188416
0.671051 0.812347 0.188782
0.702606 0.809753 0.187012
0.734283 0.807068 0.185150
0.763336 0.807068 0.185638
0.792816 0.806885 0.186462
0.824707 0.807281 0.187836
0.856079 0.807922 0.189240
0.885162 0.807343 0.191315
0.914581 0.806549 0.192657
0.937531 0.805023 0.189789
0.959717 0.803894 0.187256
0.979919 0.801788 0.181458
1.000000 0.799896 0.174683
0.172974 0.844696 0.198364
0.197327 0.844421 0.198639
0.216888 0.844421 0.198639
0.237457 0.844910 0.199097
0.262726 0.845276 0.199341
0.289673 0.844788 0.199554
0.313232 0.844299 0.199951
0.337494 0.842987 0.199066
0.364258 0.842377 0.197693
0.392853 0.842377 0.195435
0.420563 0.841431 0.193176
0.448059 0.841187 0.191711
0.477203 0.841400 0.190491
0.508850 0.841919 0.190887
0.537628 0.840973 0.189545
0.564850 0.840912 0.189148
0.594757 0.842499 0.190948
0.626831 0.842194 0.190887
0.656219 0.841278 0.192169
0.681915 0.841064 0.192535
0.708069 0.839203 0.189728
0.739532 0.836517 0.187866
0.771271 0.836273 0.189087
0.800781 0.836121 0.189972
0.828369 0.835419 0.189636
0.859711 0.835999 0.191101
0.888123 0.835327 0.192627
0.917267 0.834808 0.194061
0.938263 0.834045 0.193115
0.959839 0.832794 0.191254
0.979919 0.830658 0.191650
1.000000 0.828217 0.185028
0.182373 0.874756 0.200317
0.209045 0.874023 0.201050
0.229858 0.873749 0.201172
0.249939 0.873749 0.201172
0.275269 0.873840 0.201141
0.302734 0.873840 0.201874
0.326508 0.873596 0.202820
0.350250 0.872864 0.203552
0.376953 0.872284 0.201660
0.404419 0.872284 0.199463
0.431305 0.871521 0.198334
0.458740 0.870056 0.196838
0.487427 0.869873 0.195160
0.515747 0.869904 0.193665
0.545105 0.869293 0.191803
0.574768 0.868561 0.189758
0.604797 0.870087 0.191742
