resources/shader/blue.CUBE
#Created by: Adobe Photoshop Export Color Lookup Plugin
TITLE "Screenshot 2025-09-24 143310.png"
#LUT size
LUT_3D_SIZE 8
#data domain
#LUT data points
DOMAIN_MIN 0.000000 0.000000 0.000000
DOMAIN_MAX 0.903226 0.903226 0.903226
0.009033 0.024231 0.079773
0.102631 0.022003 0.080231
0.235962 0.014069 0.073975
0.359772 0.000000 0.060638
0.486176 0.000000 0.053192
0.614014 0.000000 0.056274
0.756378 0.000000 0.067993
0.905365 0.000000 0.081665
0.009033 0.123840 0.073975
0.103760 0.120392 0.070435
0.237305 0.115814 0.045532
0.358154 0.109497 0.048950
0.482025 0.096924 0.048920
0.611877 0.105865 0.057037
0.756073 0.097015 0.065918
0.903961 0.092133 0.081482
0.009033 0.232086 0.074646
0.101288 0.231598 0.073792
0.227264 0.234039 0.073639
0.357147 0.237366 0.054932
0.492554 0.237732 0.033447
0.633057 0.234833 0.032501
0.772034 0.245972 0.044617
0.910400 0.261658 0.073212
0.009033 0.363098 0.095520
0.099152 0.362427 0.096008
0.235413 0.364563 0.094086
0.362122 0.372742 0.101929
0.493835 0.377594 0.092041
0.637085 0.385773 0.067505
0.786469 0.386963 0.037415
0.929565 0.386932 0.032501
0.015350 0.506561 0.130402
0.118225 0.505615 0.131104
0.259064 0.511078 0.130859
0.388184 0.514862 0.134552
0.514374 0.520294 0.138397
0.651215 0.528931 0.138611
0.791840 0.531982 0.116760
0.929077 0.527893 0.070435
0.079132 0.654022 0.168396
0.183136 0.655792 0.170044
0.299164 0.654175 0.167023
0.426758 0.657562 0.165070
0.544495 0.658386 0.168396
0.672821 0.659515 0.172424
0.797546 0.659363 0.172791
0.932129 0.655731 0.139130
0.143890 0.784271 0.190308
0.232788 0.785095 0.193146
0.347290 0.783142 0.189056
0.460297 0.782745 0.185913
0.580139 0.782013 0.184296
0.697876 0.779785 0.184326
0.820465 0.778564 0.186401
0.934967 0.774963 0.184662
0.193817 0.904175 0.204346
0.284393 0.902710 0.204376
0.383759 0.901001 0.202606
0.496124 0.898529 0.196838
0.609802 0.896759 0.192139
0.727264 0.897003 0.196136
0.838806 0.891602 0.192963
0.939758 0.889130 0.196777
0.009033 0.025085 0.182129
0.093964 0.022949 0.181091
0.207001 0.028778 0.178833
0.318390 0.036743 0.182556
0.451477 0.035706 0.186981
0.588409 0.030853 0.191406
0.736176 0.028961 0.200104
0.894989 0.023224 0.210938
0.009033 0.123932 0.181549
0.089325 0.124176 0.180237
0.198914 0.126892 0.181885
0.327057 0.128754 0.183746
0.461670 0.129883 0.187988
0.598602 0.129791 0.191345
0.746643 0.129700 0.199951
0.899658 0.118439 0.208588
0.009033 0.234039 0.185028
0.089325 0.235626 0.184113
0.199158 0.237915 0.182892
0.344604 0.241791 0.171417
0.478149 0.245819 0.180603
0.611267 0.254333 0.187897
0.758179 0.262390 0.199402
0.905762 0.267822 0.209137
0.009033 0.364288 0.207153
0.089325 0.366516 0.203857
0.190704 0.369049 0.204285
0.346252 0.376587 0.209015
0.485260 0.384308 0.198334
0.631256 0.389648 0.176605
0.779755 0.392822 0.172180
0.917877 0.401672 0.185608
0.009033 0.508759 0.232819
0.089325 0.509918 0.229004
0.228088 0.512604 0.233795
0.370331 0.516876 0.233490
0.503662 0.523132 0.240814
0.641144 0.533081 0.238892
0.783691 0.535065 0.215942
0.929077 0.531403 0.182800
0.031586 0.658142 0.260681
0.124268 0.657898 0.260376
0.271912 0.658112 0.266724
0.410522 0.658905 0.265747
0.531799 0.661530 0.264587
0.660858 0.663086 0.269409
0.788605 0.662201 0.266632
0.925781 0.658691 0.237518
0.120941 0.786621 0.277039
0.213226 0.786987 0.282074
0.327301 0.786621 0.283997
0.446655 0.784729 0.282196
0.569916 0.783661 0.277679
0.688995 0.781830 0.280487
0.813110 0.780579 0.279419
0.931152 0.777313 0.280029
0.175507 0.906219 0.289062
0.267487 0.905457 0.291321
0.372253 0.904388 0.295837
0.483856 0.901733 0.291840
0.602783 0.898438 0.287018
0.720184 0.897644 0.288269
0.833832 0.893341 0.286377
0.938629 0.890442 0.287964
0.009033 0.022186 0.284485
0.089325 0.026398 0.282288
0.199005 0.031860 0.281158
0.309570 0.043976 0.283783
0.418732 0.058289 0.291504
0.549042 0.077179 0.309753
0.693909 0.088898 0.326233
0.851868 0.100342 0.341217
0.009033 0.123962 0.280823
0.089325 0.127045 0.281891
0.179657 0.129700 0.281067
0.304138 0.138153 0.287384
0.423431 0.154663 0.299103
0.556885 0.168762 0.313354
0.705933 0.180908 0.329315
0.859863 0.192749 0.344025
0.009033 0.234253 0.286957
0.089325 0.238281 0.289520
0.171112 0.243317 0.291840
0.306274 0.251526 0.299683
0.435425 0.263519 0.312744
0.578461 0.273621 0.321472
0.729614 0.284271 0.334229
0.877716 0.293182 0.345642
0.009033 0.365692 0.311157
0.089325 0.368988 0.311859
0.169647 0.374420 0.316132
0.310669 0.382050 0.319397
0.469482 0.388916 0.312134
0.616119 0.397827 0.318604
0.756805 0.407684 0.331116
0.906525 0.412811 0.339355
0.009033 0.509430 0.345673
0.089325 0.513153 0.345947
0.176849 0.517456 0.344635
0.340332 0.521423 0.346191
0.479706 0.527252 0.350464
0.625488 0.537842 0.340027
0.774750 0.542206 0.325409
0.920929 0.536224 0.310181
0.009033 0.657806 0.377289
0.103668 0.659027 0.374756
0.214478 0.662018 0.371765
0.380371 0.664185 0.373322
0.515137 0.664185 0.369904
0.644775 0.668091 0.374542
0.777344 0.666718 0.367828
0.918457 0.663147 0.339111
0.097351 0.787903 0.387665
0.190643 0.789490 0.384430
0.296417 0.789398 0.379456
0.420990 0.788666 0.386230
0.551788 0.787079 0.380005
0.674225 0.785370 0.380310
0.797974 0.785126 0.381561
0.924255 0.782593 0.380798
0.152679 0.907959 0.387695
0.242279 0.908234 0.385254
0.342072 0.908447 0.385651
0.462189 0.905823 0.390625
0.584259 0.903259 0.388428
0.707367 0.901184 0.387024
0.819305 0.897675 0.382935
0.933502 0.894592 0.384399
0.009033 0.026093 0.382263
0.089325 0.030212 0.381409
0.176300 0.036743 0.383362
0.305450 0.047516 0.384064
0.417633 0.063293 0.393921
0.537689 0.086090 0.409760
0.662445 0.113678 0.430695
0.805756 0.138550 0.456757
0.009033 0.126678 0.382263
0.089325 0.128723 0.382904
0.173584 0.133942 0.382324
0.299408 0.142639 0.387390
0.418610 0.158905 0.400238
0.537720 0.179688 0.413818
0.667847 0.208313 0.436768
0.816956 0.227509 0.460266
0.009033 0.239044 0.388977
0.089325 0.240509 0.388580
0.169647 0.247284 0.396545
0.286957 0.255768 0.401184
0.418427 0.270966 0.414246
0.542145 0.289337 0.427185
0.681885 0.312531 0.450500
0.837494 0.327026 0.468842
0.009033 0.369659 0.411163
0.089325 0.371063 0.412506
0.169647 0.376587 0.418976
0.264801 0.387024 0.426239
0.423798 0.398773 0.438721
0.566803 0.413727 0.452667
0.718597 0.427032 0.467407
0.866547 0.435822 0.476624
0.009033 0.512360 0.445282
0.089325 0.516846 0.450439
0.169647 0.520538 0.452606
0.275635 0.525177 0.456635
0.451630 0.536530 0.463806
0.608704 0.542725 0.453339
0.756012 0.547729 0.454895
0.898041 0.547394 0.462891
0.009705 0.660706 0.483124
0.095093 0.660492 0.482269
0.192902 0.664490 0.487030
0.336365 0.668640 0.483643
0.483612 0.669250 0.482849
0.624054 0.672180 0.482788
0.761230 0.673035 0.471497
0.910767 0.669617 0.444489
0.080933 0.788269 0.498383
0.178162 0.789795 0.498505
0.277252 0.790924 0.500641
0.388580 0.793488 0.491821
0.525635 0.794037 0.493591
0.656860 0.788971 0.485809
0.783295 0.791504 0.488800
0.910309 0.787567 0.480682
0.149689 0.908752 0.503540
0.237823 0.909088 0.500916
0.330597 0.909088 0.498138
0.435425 0.909363 0.488159
0.561249 0.907684 0.492432
0.689636 0.904694 0.489532
0.804718 0.900879 0.486816
0.922760 0.899261 0.487854
0.009033 0.031433 0.477570
0.089325 0.034027 0.478333
0.173126 0.041351 0.480591
0.295746 0.050415 0.484619
0.414154 0.067657 0.494263
0.538544 0.091248 0.511932
0.663513 0.121246 0.534210
0.791931 0.151398 0.556427
0.009033 0.129364 0.479340
0.089325 0.132172 0.480469
0.169647 0.137329 0.482788
0.289886 0.148376 0.490509
0.415619 0.161377 0.500000
0.539642 0.185944 0.516724
0.665161 0.212463 0.538910
0.796539 0.242767 0.560455
0.009033 0.241882 0.488647
0.089325 0.244476 0.491852
0.169647 0.252411 0.496765
0.277985 0.261017 0.503021
0.419067 0.275299 0.514801
0.541412 0.295319 0.531219
0.672089 0.320282 0.550751
0.802643 0.347382 0.571503
0.009033 0.374084 0.515015
0.089325 0.375275 0.515625
0.169647 0.381622 0.520996
0.264740 0.391205 0.529541
0.416687 0.404785 0.541138
0.548431 0.421539 0.554657
0.682220 0.442810 0.570831
0.821533 0.456940 0.586639
0.009033 0.517151 0.548096
0.089325 0.518982 0.550171
0.169647 0.523041 0.551819
0.269409 0.530945 0.561188
0.421112 0.543915 0.572449
0.570435 0.551514 0.580353
0.711426 0.561066 0.587006
0.856323 0.565125 0.595123
0.009033 0.661469 0.583374
0.095093 0.663452 0.583832
0.187958 0.666199 0.587738
0.325409 0.669403 0.589081
0.453827 0.673218 0.590088
0.600494 0.677185 0.589447
0.747467 0.677826 0.577301
0.896027 0.674072 0.567749
0.077576 0.789490 0.598846
0.174347 0.791473 0.599609
0.272705 0.790466 0.600220
0.386353 0.793884 0.602631
0.500763 0.796509 0.597504
0.632812 0.795441 0.595032
0.767639 0.797333 0.593628
0.896576 0.791748 0.580750
0.146240 0.909424 0.605469
0.233948 0.909576 0.605164
0.327271 0.909790 0.604248
0.427307 0.909302 0.604706
0.536469 0.912628 0.596497
0.661621 0.909271 0.595154
0.791687 0.905396 0.590881
0.910553 0.902466 0.589630
0.009033 0.037506 0.577271
0.089325 0.040833 0.576752
0.169647 0.047150 0.578583
0.286713 0.058899 0.585693
0.412231 0.076172 0.599213
0.536591 0.095825 0.613220
0.665009 0.126129 0.637115
0.795959 0.156799 0.659180
0.009033 0.134796 0.578644
0.089325 0.137482 0.578400
0.169647 0.144073 0.585266
0.285217 0.155182 0.592285
0.413116 0.169189 0.604980
0.537567 0.189514 0.620422
0.667114 0.217682 0.641663
0.800201 0.247162 0.664307
0.009033 0.249969 0.592651
0.089325 0.251038 0.595001
0.169647 0.255341 0.598175
0.263062 0.266968 0.607330
0.407379 0.280945 0.617584
0.543030 0.300507 0.635071
0.673615 0.324707 0.653656
0.807129 0.351898 0.676056
0.009033 0.377594 0.616394
0.089325 0.382172 0.621735
0.169647 0.386932 0.625519
0.261322 0.397186 0.633087
0.408295 0.409790 0.643372
0.547821 0.426086 0.654846
0.683563 0.446472 0.674377
0.814117 0.464447 0.688080
0.009033 0.522003 0.653290
0.089325 0.523499 0.653442
0.169647 0.527405 0.657898
0.268433 0.536530 0.666138
0.418091 0.546265 0.675293
0.561005 0.557251 0.682343
0.694977 0.568604 0.690186
0.821167 0.576813 0.694275
0.009033 0.665771 0.686584
0.089325 0.666565 0.686340
0.190308 0.668182 0.685425
0.329437 0.671448 0.687347
0.455719 0.677063 0.692383
0.577667 0.682159 0.694489
0.714935 0.685577 0.700531
0.853943 0.687836 0.703674
0.075562 0.791260 0.698486
0.164825 0.792084 0.699341
0.272675 0.792358 0.701813
0.384216 0.795319 0.701660
0.493988 0.797028 0.704315
0.612213 0.799622 0.703461
0.745850 0.801270 0.702423
0.884247 0.796967 0.686401
0.141937 0.909546 0.705627
0.231934 0.909729 0.705536
0.327240 0.909729 0.705078
0.426147 0.911377 0.705444
0.533997 0.913208 0.708923
0.639374 0.913666 0.703278
0.765991 0.910309 0.698914
0.893585 0.908752 0.700470
0.009033 0.046661 0.674683
0.089325 0.047943 0.676239
0.169647 0.055054 0.680267
0.281464 0.068298 0.688782
0.413177 0.083344 0.700989
0.538269 0.104462 0.718842
0.666321 0.131042 0.741150
0.799530 0.162323 0.766052
0.009033 0.141937 0.680756
0.089325 0.143921 0.681580
0.169647 0.151276 0.686188
0.280853 0.162445 0.695526
0.412140 0.178772 0.707092
0.539032 0.198334 0.725555
0.669769 0.223389 0.746887
0.798645 0.253113 0.769348
0.009033 0.254883 0.693939
0.089325 0.256622 0.694946
0.169647 0.262878 0.701294
0.272308 0.272949 0.709259
0.408661 0.287933 0.722504
0.543732 0.308777 0.740906
0.676788 0.331024 0.759613
0.808655 0.356567 0.777344
0.009033 0.385284 0.723145
0.089325 0.388580 0.724426
0.169647 0.394409 0.729858
0.259552 0.402466 0.737610
0.412170 0.416016 0.748505
0.547272 0.432709 0.764130
0.685364 0.449707 0.777435
0.816071 0.467255 0.789001
0.009033 0.527374 0.759338
0.089325 0.527435 0.758484
0.169647 0.534088 0.765289
0.270264 0.541931 0.770416
0.426636 0.551544 0.776978
0.562378 0.560486 0.783752
0.695282 0.570923 0.791534
0.823334 0.578461 0.796265
0.009033 0.668304 0.785797
0.089325 0.669159 0.788666
0.188965 0.671448 0.790833
0.314056 0.673462 0.791718
0.450409 0.679260 0.796204
0.578613 0.683502 0.797333
0.709045 0.687775 0.800964
0.837097 0.693512 0.804382
0.075317 0.792603 0.799652
0.161438 0.792542 0.800140
0.271454 0.794281 0.800629
0.387512 0.796967 0.801270
0.498413 0.797546 0.801056
0.611389 0.801086 0.803650
0.727173 0.804352 0.804779
0.860168 0.803955 0.806946
0.147827 0.909302 0.805603
0.234406 0.911102 0.807404
0.325745 0.911438 0.806519
0.425476 0.911896 0.806427
0.532593 0.914673 0.809113
0.638214 0.913879 0.808136
0.744537 0.914154 0.807068
0.874329 0.912537 0.805450
0.009033 0.054932 0.777191
0.089325 0.058899 0.779205
0.169647 0.064606 0.782104
0.279877 0.077332 0.793762
0.418823 0.092255 0.804230
0.541199 0.114807 0.824982
0.672302 0.141235 0.844971
0.802063 0.169067 0.868073
0.009033 0.151886 0.782593
0.089325 0.153381 0.784637
0.169647 0.159882 0.789429
0.284454 0.170410 0.798828
0.416656 0.188171 0.813171
0.542603 0.208344 0.831635
0.675568 0.230988 0.849487
0.804932 0.259552 0.873322
0.009033 0.262970 0.798859
0.089325 0.266541 0.800598
0.169647 0.271118 0.802551
0.272522 0.282318 0.813416
0.418335 0.299438 0.830750
0.546661 0.316315 0.843933
0.682190 0.339447 0.864960
0.810852 0.361023 0.882141
0.009033 0.394501 0.827698
0.089325 0.396973 0.828735
0.169647 0.401672 0.833252
0.263794 0.411835 0.842499
0.415100 0.424438 0.853638
0.552704 0.439667 0.868195
0.688507 0.456146 0.880096
0.817474 0.470642 0.893860
0.009033 0.533356 0.861938
0.089325 0.534729 0.862885
0.169647 0.540588 0.869141
0.267151 0.547394 0.873779
0.427307 0.555267 0.880188
0.561432 0.566956 0.890808
0.694092 0.573975 0.894287
0.825958 0.580780 0.900543
0.009033 0.670532 0.892456
0.089325 0.670776 0.890350
0.181488 0.673584 0.894104
0.323029 0.678772 0.895935
0.458710 0.680206 0.894379
0.577637 0.687317 0.900543
0.705536 0.692169 0.903961
0.836823 0.694519 0.905304
0.080414 0.794617 0.901398
0.179504 0.794617 0.899750
0.274780 0.796753 0.902313
0.388672 0.797089 0.904022
0.494690 0.799561 0.903870
0.609589 0.804596 0.907623
0.729431 0.803772 0.905060
0.847687 0.808167 0.906403
0.146912 0.910889 0.904053
0.235321 0.911285 0.904724
0.333740 0.912048 0.903931
0.432373 0.913116 0.905151
0.533508 0.912933 0.904175
0.640259 0.913544 0.904144
0.746643 0.916473 0.906586
0.858856 0.916534 0.908722
