resources/shader/blue.CUBE
#Created by: Adobe Photoshop Export Color Lookup Plugin
TITLE "Screenshot 2025-09-24 143310.png"
#LUT size
LUT_3D_SIZE 5
#data domain
#LUT data points
DOMAIN_MIN 0.000000 0.000000 0.000000
DOMAIN_MAX 0.903226 0.903226 0.903226
0.009033 0.024231 0.079773
0.205017 0.018158 0.077637
0.423615 0.000000 0.053589
0.647949 0.000000 0.058228
0.905365 0.000000 0.081665
0.009033 0.203522 0.074158
0.195801 0.203827 0.071930
0.424561 0.202209 0.035095
0.657806 0.207550 0.037628
0.905884 0.229919 0.079407
0.009033 0.432281 0.110596
0.213196 0.435394 0.110779
0.438599 0.446289 0.119354
0.678406 0.458923 0.099304
0.931366 0.460663 0.035187
0.093231 0.687134 0.171478
0.282166 0.690308 0.177673
0.489685 0.688385 0.170624
0.710175 0.690216 0.177612
0.931610 0.687286 0.153076
0.193817 0.904175 0.204346
0.358398 0.901550 0.204895
0.552307 0.898621 0.194458
0.753693 0.895081 0.194122
0.939758 0.889130 0.196777
0.009033 0.024323 0.259277
0.172668 0.028534 0.254822
0.363220 0.049377 0.259796
0.592346 0.071503 0.285278
0.863678 0.085815 0.308502
0.009033 0.205261 0.259277
0.149567 0.211548 0.261230
0.373016 0.225708 0.277008
0.618408 0.241394 0.292480
0.884766 0.258606 0.312958
0.009033 0.435852 0.299683
0.149567 0.442627 0.302307
0.403961 0.454681 0.307861
0.662903 0.468842 0.285980
0.916626 0.472046 0.292786
0.025330 0.692474 0.353210
0.221161 0.694061 0.346924
0.466248 0.693756 0.347870
0.690247 0.697693 0.351929
0.921417 0.693085 0.325195
0.154602 0.907837 0.359650
0.323456 0.908051 0.360260
0.530609 0.902802 0.363007
0.738281 0.899048 0.360596
0.935211 0.893463 0.359558
0.009033 0.028656 0.430389
0.149567 0.036438 0.429779
0.357849 0.056610 0.439087
0.569855 0.096039 0.466827
0.791718 0.149567 0.505402
0.009033 0.210205 0.434540
0.149567 0.219421 0.441437
0.357056 0.235535 0.452026
0.573761 0.270996 0.482452
0.811646 0.314270 0.519501
0.009033 0.441132 0.479156
0.149567 0.447693 0.484009
0.346466 0.466614 0.500183
0.601410 0.487946 0.522400
0.863281 0.501038 0.534882
0.009033 0.695251 0.537933
0.196381 0.697266 0.540100
0.410767 0.701447 0.538330
0.658478 0.703400 0.540527
0.908142 0.701447 0.503174
0.148071 0.908447 0.553650
0.305908 0.908539 0.552277
0.485382 0.911957 0.541687
0.708466 0.906708 0.541290
0.916016 0.900452 0.539520
0.009033 0.039001 0.601227
0.149567 0.046478 0.600525
0.347687 0.070312 0.617493
0.567322 0.103790 0.643646
0.795959 0.158264 0.685028
0.009033 0.220612 0.613800
0.149567 0.225128 0.617432
0.346466 0.247345 0.634155
0.573792 0.279022 0.660461
0.802979 0.325378 0.696625
0.009033 0.447876 0.660034
0.149567 0.458557 0.668304
0.346802 0.473572 0.679779
0.587860 0.496582 0.699799
0.815948 0.520508 0.716736
0.009033 0.698517 0.715515
0.177399 0.699951 0.711578
0.401550 0.706543 0.719635
0.616608 0.715149 0.724335
0.853180 0.717926 0.730194
0.142639 0.909088 0.730408
0.304199 0.909515 0.730316
0.480621 0.911133 0.730652
0.665985 0.914001 0.729095
0.888977 0.909271 0.725220
0.009033 0.054932 0.777191
0.149567 0.062408 0.781372
0.352631 0.083771 0.797668
0.574097 0.120697 0.829865
0.802063 0.169067 0.868073
0.009033 0.234528 0.794373
0.149567 0.239319 0.795380
0.353882 0.260773 0.816223
0.578735 0.294006 0.844574
0.810669 0.335785 0.879883
0.009033 0.463043 0.842316
0.149567 0.469849 0.851105
0.347748 0.484314 0.863312
0.587128 0.506714 0.882141
0.821899 0.525665 0.896118
0.009033 0.701691 0.894958
0.150909 0.704285 0.896637
0.403717 0.710724 0.899689
0.615662 0.717499 0.903625
0.840393 0.723663 0.905548
0.146912 0.910889 0.904053
0.306488 0.912506 0.904968
0.486267 0.913849 0.906494
0.666168 0.913757 0.904358
0.858856 0.916534 0.908722
